www/assets/icons/format_color_fill.svg

<svg xmlns="http://www.w3.org/2000/svg" width="24" height="24" viewBox="0 0 24 24" fill='currentColor'><path d="M16.56 8.94 7.62 0 6.21 1.41l2.38 2.38-5.15 5.15a1.49 1.49 0 0 0 0 2.12l5.5 5.5c.29.29.68.44 1.06.44s.77-.15 1.06-.44l5.5-5.5c.59-.58.59-1.53 0-2.12M5.21 10 10 5.21 14.79 10zM19 11.5s-2 2.17-2 3.5c0 1.1.9 2 2 2s2-.9 2-2c0-1.33-2-3.5-2-3.5M2 20h20v4H2z"/></svg>

<svg width="24" height="24" viewBox="0 0 24 24" xmlns="http://www.w3.org/2000/svg" fill='currentColor'><path d="M16.56 8.94L7.62 0L6.21 1.41L8.59 3.79L3.44 8.94C2.85 9.53 2.85 10.48 3.44 11.06L8.94 16.56C9.23 16.85 9.62 17 10 17C10.38 17 10.77 16.85 11.06 16.56L16.56 11.06C17.15 10.48 17.15 9.53 16.56 8.94ZM5.21 10L10 5.21L14.79 10H5.21ZM19 11.5C19 11.5 17 13.67 17 15C17 16.1 17.9 17 19 17C20.1 17 21 16.1 21 15C21 13.67 19 11.5 19 11.5ZM2 20H22V24H2V20Z"/></svg>
